X:7085
T:the Milk Maid
O:england
M:6/8
R:Jig
K:D
A|\
d2d ede| fgf a2a| g2g f2f| ede d2A|\
d2d ede| fgf a2a| g2g f2f| ede d2:|
e|\
f2f edc| dcB A2E| A2c B2d| c2B c3|\
f2f edc| f^ga e2e| fef ^gfg| (a3 a2)(f/g/)|
afd def| ged cBA| Bcd efg| fed cBA|\
afd def| ged cBA| Bcd Adc| (d3 d2)|]


